assets/svg/tools/diagram.svg

<svg xmlns="http://www.w3.org/2000/svg" width="24" height="24" fill="none"><defs><linearGradient id="a" x1="2" x2="22" y1="2" y2="22" gradientUnits="userSpaceOnUse"><stop offset="0%" stop-color="#10B981"/><stop offset="100%" stop-color="#059669"/></linearGradient></defs><path fill="url(#a)" d="M3 3h8v8H3zm0 10h8v8H3zM13 3h8v8h-8zm0 10h8v8h-8z"/></svg>

<?xml version="1.0" encoding="UTF-8"?>
<svg width="24" height="24" viewBox="0 0 24 24" fill="none" xmlns="http://www.w3.org/2000/svg">
    <defs>
        <linearGradient id="diagram_gradient" x1="2" y1="2" x2="22" y2="22" gradientUnits="userSpaceOnUse">
            <stop offset="0%" stop-color="#10B981"/>
            <stop offset="100%" stop-color="#059669"/>
        </linearGradient>
    </defs>
    <path d="M3 3H11V11H3V3ZM3 13H11V21H3V13ZM13 3H21V11H13V3ZM13 13H21V21H13V13Z" fill="url(#diagram_gradient)"/>
</svg>
